X: 18285
T: Humours Of Strand Road, The
R: jig
M: 6/8
K: Dmajor
FDF G2E|FDF G2E|FDF G2E|EAd cAG|
FDF G3|FDF G2e|fed cAG|Adc d3:|
|:f3 g2g|fed cde|f3 geg|faf a3|
gff g2g|fed cde|fed cAG|Adc d3:|

